X: 3204
T: Bees In The Cherry Tree, The
R: slide
M: 12/8
K: Gmajor
gfg d2 B G2 B c2 e|d2 B BAG B2 A ABd|gfg d2 B G2 B c2 e|d2 B ABA G3 GBd|
gfg d2 B G2 B c2 e|d2 B BAG B2 A ABd|gfg d2 B G2 B c2 e|d2 B ABA G3 G3|
gag gfg aba a2 g|faf def g2 d B2 d|gag gfg aba a2 g|faf def g3 g2 d|
gag gfg aba a2 g|faf def g2 d B2 d|gag gfg aba a2 g|faf def g3 g3|

